icon-themes/sifr_svg/cmd/lc_heading3parastyle.svg

<svg viewBox="0 0 24 24" xmlns="http://www.w3.org/2000/svg"><path d="m2 2v20h3v-8h6v8h3v-20h-3v9h-6v-9zm17.5 8a3.5 3.5 0 0 0 -3.5 3.5v.5h2v-.5a1.5 1.5 0 0 1 1.5-1.5 1.5 1.5 0 0 1 1.5 1.5 1.5 1.5 0 0 1 -1.5 1.5h-.5v2h.5a1.5 1.5 0 0 1 1.5 1.5 1.5 1.5 0 0 1 -1.5 1.5 1.5 1.5 0 0 1 -1.5-1.5v-.5h-2v.5a3.5 3.5 0 0 0 3.5 3.5 3.5 3.5 0 0 0 3.5-3.5 3.5 3.5 0 0 0 -1.05-2.5 3.5 3.5 0 0 0 1.05-2.5 3.5 3.5 0 0 0 -3.5-3.5z" fill="#555753"/></svg>

<svg xmlns="http://www.w3.org/2000/svg" viewBox="0 0 24 24">
  <path
     style="fill:#555753"
     d="M 2 2 L 2 22 L 5 22 L 5 14 L 11 14 L 11 22 L 14 22 L 14 2 L 11 2 L 11 11 L 5 11 L 5 2 L 2 2 z M 19.5 10 A 3.5 3.5 0 0 0 16 13.5 L 16 14 L 18 14 L 18 13.5 A 1.5 1.5 0 0 1 19.5 12 A 1.5 1.5 0 0 1 21 13.5 A 1.5 1.5 0 0 1 19.5 15 L 19 15 L 19 17 L 19.5 17 A 1.5 1.5 0 0 1 21 18.5 A 1.5 1.5 0 0 1 19.5 20 A 1.5 1.5 0 0 1 18 18.5 L 18 18 L 16 18 L 16 18.5 A 3.5 3.5 0 0 0 19.5 22 A 3.5 3.5 0 0 0 23 18.5 A 3.5 3.5 0 0 0 21.95 16 A 3.5 3.5 0 0 0 23 13.5 A 3.5 3.5 0 0 0 19.5 10 z "
     />
</svg>
